X: 1
T: Grant's
M: 4/4
L: 1/8
R: reel
K: Emaj
|:e2 BA GBEB|GBEB GBEB|B,EGF EGB,E|DFB,D FDB,D|
e2 BA GBEB|GBEB GBEB|a2 ga gfed|f2 e2 e2 (3Bcd:|
|:efga bgeg|gffe dfBd|efga bgeg|gedc Bc =d2|
cAce BGB=d|AFA=d F=DFA|EGBa gbfd|1e2 g2 e2 (3Bcd:|2e4 E4||
